assets/img/another/icon-6.svg

<svg width="91" height="76" viewBox="0 0 91 76" fill="none" xmlns="http://www.w3.org/2000/svg">
<g clip-path="url(#clip0_192_22649)">
<path d="M43.8406 0.59275C15.8355 -3.50779 -0.297094 14.4259 0.000129813 32.0138C0.297354 49.6016 19.6499 57.8686 19.6499 57.8686C34.6432 63.7147 46.367 65.658 46.367 65.658L48.2494 75.9999L54.4911 65.4109C70.1284 64.0935 95.3924 53.6363 90.3066 35.9332C85.2373 18.2465 71.8292 4.69329 43.8406 0.59275Z" fill="#8ABC36"/>
<path d="M34.3131 37.4153C29.2272 36.4766 23.8937 36.773 18.7584 37.4812C19.1712 30.1858 21.2022 22.7587 22.292 15.5951C22.5232 14.0307 20.1949 13.3884 19.8647 15.0023C18.2134 22.9728 17.5529 31.635 14.7954 39.2926C14.3826 40.4289 15.5549 41.8781 16.7603 41.7299C22.5397 41.0218 28.1209 41.2853 33.9168 41.2194C36.0469 41.1865 36.4762 37.8105 34.3131 37.4153Z" fill="white"/>
<path d="M33.8509 24.4056C31.4897 24.3232 29.1119 24.5044 26.7506 24.5703C24.637 24.6361 22.0776 24.3397 20.0465 24.9655C19.5016 25.1302 19.0558 25.6736 19.1053 26.25C19.1384 26.5958 19.2044 26.8429 19.4026 27.1228C19.6668 27.5016 20.0961 27.6992 20.5584 27.5674C20.5584 27.5674 20.5584 27.5674 20.5749 27.5674C21.929 27.8474 23.5141 27.6992 24.8021 27.7321C27.8404 27.798 30.9117 28.0121 33.9335 27.9133C36.2287 27.8309 36.1131 24.4715 33.8509 24.4056Z" fill="white"/>
<path d="M32.7443 15.0847C28.7814 14.6236 24.7358 14.4095 20.7398 14.2613C19.3693 14.2119 19.1051 16.468 20.4756 16.6656C24.4056 17.2255 28.4511 17.7525 32.4141 17.9995C34.0984 18.0984 34.4121 15.2658 32.7443 15.0847Z" fill="white"/>
<path d="M53.8802 37.1354C53.6986 36.8884 53.5169 36.6414 53.3518 36.3944C51.9648 34.5005 49.3558 35.6533 49.4219 37.5801C46.4992 39.7539 43.3288 39.3586 41.628 35.3734C40.5877 32.9196 41.017 30.1365 41.6445 27.6498C42.9655 22.413 48.2495 16.4186 53.9958 19.6299C55.2177 20.3051 56.5717 18.5924 55.4819 17.6373C46.978 10.1773 38.4906 21.9025 37.1201 29.6095C36.3935 33.7265 37.6155 39.4904 41.4298 41.9112C45.7561 44.6613 50.0824 43.0639 53.583 39.7868C54.2435 39.1775 54.4416 37.9094 53.8802 37.1354Z" fill="white"/>
<path d="M70.6732 20.8319C70.0953 20.4697 69.5008 20.4697 68.9889 20.7002C65.2902 18.724 61.5418 27.0239 60.5181 29.2636C58.3715 33.924 57.2816 41.7299 62.6482 44.9082C68.411 48.3171 72.1593 43.8049 74.0913 38.6504C76.4195 32.4419 76.9149 24.8831 70.6732 20.8319ZM68.7413 40.5936C65.8846 42.3721 63.9361 42.0922 62.8959 39.7208C61.74 37.8599 62.0702 35.3732 62.45 33.3806C62.6151 32.5078 65.2241 24.5373 67.701 23.2363C67.8001 23.5327 67.9652 23.8291 68.2624 24.0762C73.5299 28.4072 71.6144 35.3403 68.7413 40.5936Z" fill="white"/>
</g>
<defs>
<clipPath id="clip0_192_22649">
<rect width="91" height="76" fill="white"/>
</clipPath>
</defs>
</svg>

<svg width="91" height="76" fill="none" xmlns="http://www.w3.org/2000/svg"><g clip-path="url(#clip0_192_22649)"><path d="M43.84.593C15.836-3.507-.296 14.426 0 32.013.297 49.603 19.65 57.87 19.65 57.87c14.993 5.846 26.717 7.789 26.717 7.789L48.249 76l6.242-10.59c15.637-1.316 40.901-11.774 35.816-29.477C85.237 18.247 71.829 4.693 43.84.593z" fill="#8ABC36"/><path d="M34.313 37.415c-5.086-.938-10.42-.642-15.555.066.413-7.295 2.444-14.722 3.534-21.886.231-1.564-2.097-2.207-2.427-.593-1.652 7.97-2.312 16.633-5.07 24.29-.412 1.137.76 2.586 1.965 2.438 5.78-.708 11.36-.445 17.157-.51 2.13-.033 2.56-3.41.396-3.805z" fill="#fff"/><path d="M33.85 24.406c-2.36-.083-4.738.098-7.1.164-2.113.066-4.672-.23-6.703.395-.545.165-.991.709-.942 1.285.033.346.1.593.298.873.264.379.693.576 1.155.444h.017c1.354.28 2.94.132 4.227.165 3.038.066 6.11.28 9.132.181 2.295-.082 2.18-3.442-.083-3.507zm-1.106-9.321c-3.963-.461-8.008-.676-12.004-.824-1.37-.05-1.635 2.207-.264 2.405 3.93.56 7.975 1.087 11.938 1.334 1.684.098 1.998-2.734.33-2.915zm21.136 22.05c-.181-.247-.363-.494-.528-.74-1.387-1.895-3.996-.742-3.93 1.185-2.923 2.174-6.093 1.779-7.794-2.207-1.04-2.453-.611-5.236.017-7.723 1.32-5.237 6.604-11.231 12.35-8.02 1.223.675 2.577-1.038 1.487-1.993-8.504-7.46-16.991 4.265-18.362 11.973-.726 4.117.495 9.88 4.31 12.301 4.326 2.75 8.652 1.153 12.153-2.124.66-.61.859-1.878.297-2.652zm16.793-16.303c-.578-.362-1.172-.362-1.684-.132-3.699-1.976-7.447 6.324-8.47 8.564-2.148 4.66-3.237 12.466 2.13 15.644 5.762 3.41 9.51-1.103 11.442-6.258 2.329-6.208 2.824-13.767-3.418-17.818zm-1.932 19.762c-2.856 1.778-4.805 1.498-5.845-.873-1.156-1.861-.826-4.348-.446-6.34.165-.873 2.774-8.844 5.251-10.145.1.297.264.593.561.84 5.268 4.331 3.352 11.264.48 16.518z" fill="#fff"/></g><defs><clipPath id="clip0_192_22649"><path fill="#fff" d="M0 0h91v76H0z"/></clipPath></defs></svg>
